public/images/icon-app-contacts.svg

<svg width="48" height="48" viewBox="0 0 48 48" fill="none" xmlns="http://www.w3.org/2000/svg">
<g clip-path="url(#clip0_13_75)">
<path d="M48 35.9055V48.021L39.0205 48.0211V35.9055H48Z" fill="#FF9327"/>
<path d="M48 0.0736277V12.0699H39.0205V0.0736277H48Z" fill="#C9C8C4"/>
<path d="M48 23.79V35.9055L39.0205 35.9056V23.79H48Z" fill="#47D86F"/>
<path d="M48 11.8437V23.84H39.0205V11.8437H48Z" fill="#4FC9F8"/>
<rect x="39.0205" width="1.02083" height="48" fill="#A6A6A6" fill-opacity="0.5"/>
<rect width="39.0205" height="48" fill="#E0E2E2"/>
<path d="M14.5103 20C14.5103 17.2386 16.7488 15 19.5103 15C22.2717 15 24.5103 17.2386 24.5103 20C24.5103 22.7614 22.2717 25 19.5103 25C16.7488 25 14.5103 22.7614 14.5103 20Z" fill="#A6A6A6"/>
<path fill-rule="evenodd" clip-rule="evenodd" d="M19.5103 9C11.226 9 4.51025 15.7157 4.51025 24C4.51025 32.2842 11.226 39 19.5103 39C27.7945 39 34.5103 32.2842 34.5103 24C34.5103 15.7157 27.7945 9 19.5103 9ZM6.51025 24C6.51025 16.8203 12.3306 11 19.5103 11C26.6901 11 32.5103 16.8203 32.5103 24C32.5103 27.6991 30.9653 31.0374 28.4853 33.4048C28.1833 29.8172 25.1759 27 21.5103 27H17.5103C13.8447 27 10.8372 29.8172 10.5352 33.4048C8.05527 31.0374 6.51025 27.6991 6.51025 24Z" fill="#A6A6A6"/>
</g>
<defs>
<clipPath id="clip0_13_75">
<rect width="48" height="48" fill="white"/>
</clipPath>
</defs>
</svg>

<svg xmlns="http://www.w3.org/2000/svg" width="48" height="48" fill="none"><g clip-path="url(#a)"><path fill="#FF9327" d="M48 35.906V48.02h-8.98V35.906H48Z"/><path fill="#C9C8C4" d="M48 .074V12.07h-8.98V.074H48Z"/><path fill="#47D86F" d="M48 23.79v12.116h-8.98V23.79H48Z"/><path fill="#4FC9F8" d="M48 11.844V23.84h-8.98V11.844H48Z"/><path fill="#A6A6A6" fill-opacity=".5" d="M39.02 0h1.021v48H39.02z"/><path fill="#E0E2E2" d="M0 0h39.02v48H0z"/><path fill="#A6A6A6" d="M14.51 20a5 5 0 1 1 10 0 5 5 0 0 1-10 0Z"/><path fill="#A6A6A6" fill-rule="evenodd" d="M19.51 9c-8.284 0-15 6.716-15 15 0 8.284 6.716 15 15 15 8.284 0 15-6.716 15-15 0-8.284-6.715-15-15-15Zm-13 15c0-7.18 5.82-13 13-13s13 5.82 13 13c0 3.7-1.545 7.037-4.025 9.405A7 7 0 0 0 21.51 27h-4a7 7 0 0 0-6.975 6.405A12.963 12.963 0 0 1 6.51 24Z" clip-rule="evenodd"/></g><defs><clipPath id="a"><path fill="#fff" d="M0 0h48v48H0z"/></clipPath></defs></svg>
